img/icon-pixecalst.svg

<svg width="48" height="49" viewBox="0 0 48 49" fill="none" xmlns="http://www.w3.org/2000/svg">
<path d="M14.1342 6.90248L7.21838 13.9415L17.0776 23.9763L6.20312 35.0444L13.119 42.0834L23.9935 31.0153L34.8818 42.0975L41.7977 35.0585L14.1342 6.90248Z" fill="#737380"/>
<path d="M33.8527 6.90248L40.7686 13.9415L33.8527 20.9805L26.9369 13.9415L33.8527 6.90248Z" fill="#737380"/>
</svg>

<svg width="48" height="49" fill="none" xmlns="http://www.w3.org/2000/svg"><path d="m14.134 6.902-6.916 7.04 9.86 10.034L6.203 35.044l6.916 7.04 10.875-11.069 10.888 11.082 6.916-7.038L14.134 6.902ZM33.853 6.902l6.916 7.04-6.916 7.038-6.916-7.039 6.916-7.039Z" fill="#737380"/></svg>
